images/Chk1N123.svg

<?xml version="1.0" encoding="UTF-8"?>
<svg xmlns="http://www.w3.org/2000/svg" xmlns:xlink="http://www.w3.org/1999/xlink" width="300pt" height="300pt" viewBox="0 0 300 300" version="1.1">
<defs>
<g>
<symbol overflow="visible" id="glyph0-0">
<path style="stroke:none;" d="M 0.453125 1.59375 L 0.453125 -6.34375 L 4.953125 -6.34375 L 4.953125 1.59375 Z M 0.953125 1.09375 L 4.453125 1.09375 L 4.453125 -5.84375 L 0.953125 -5.84375 Z M 0.953125 1.09375 "/>
</symbol>
<symbol overflow="visible" id="glyph0-1">
<path style="stroke:none;" d="M 3.546875 -5.953125 C 2.898438 -5.953125 2.382812 -5.710938 2 -5.234375 C 1.625 -4.753906 1.4375 -4.101562 1.4375 -3.28125 C 1.4375 -2.445312 1.625 -1.789062 2 -1.3125 C 2.382812 -0.832031 2.898438 -0.59375 3.546875 -0.59375 C 4.191406 -0.59375 4.703125 -0.832031 5.078125 -1.3125 C 5.453125 -1.789062 5.640625 -2.445312 5.640625 -3.28125 C 5.640625 -4.101562 5.453125 -4.753906 5.078125 -5.234375 C 4.703125 -5.710938 4.191406 -5.953125 3.546875 -5.953125 Z M 3.546875 -6.6875 C 4.460938 -6.6875 5.195312 -6.375 5.75 -5.75 C 6.300781 -5.132812 6.578125 -4.3125 6.578125 -3.28125 C 6.578125 -2.238281 6.300781 -1.410156 5.75 -0.796875 C 5.195312 -0.179688 4.460938 0.125 3.546875 0.125 C 2.617188 0.125 1.878906 -0.179688 1.328125 -0.796875 C 0.773438 -1.410156 0.5 -2.238281 0.5 -3.28125 C 0.5 -4.3125 0.773438 -5.132812 1.328125 -5.75 C 1.878906 -6.375 2.617188 -6.6875 3.546875 -6.6875 Z M 3.546875 -6.6875 "/>
</symbol>
<symbol overflow="visible" id="glyph0-2">
<path style="stroke:none;" d="M 0.890625 -6.5625 L 2.078125 -6.5625 L 4.984375 -1.078125 L 4.984375 -6.5625 L 5.84375 -6.5625 L 5.84375 0 L 4.65625 0 L 1.75 -5.484375 L 1.75 0 L 0.890625 0 Z M 0.890625 -6.5625 "/>
</symbol>
<symbol overflow="visible" id="glyph0-3">
<path style="stroke:none;" d="M 0.890625 -6.5625 L 1.765625 -6.5625 L 1.765625 -3.875 L 5 -3.875 L 5 -6.5625 L 5.890625 -6.5625 L 5.890625 0 L 5 0 L 5 -3.125 L 1.765625 -3.125 L 1.765625 0 L 0.890625 0 Z M 0.890625 -6.5625 "/>
</symbol>
</g>
</defs>
<g id="surface73">
<rect x="0" y="0" width="300" height="300" style="fill:rgb(100%,100%,100%);fill-opacity:1;stroke:none;"/>
<path style="fill:none;stroke-width:1.2;stroke-linecap:butt;stroke-linejoin:miter;stroke:rgb(0%,0%,0%);stroke-opacity:1;stroke-miterlimit:10;" d="M 264.75 115.71875 L 254.464844 113.304688 "/>
<path style="fill:none;stroke-width:1.2;stroke-linecap:butt;stroke-linejoin:miter;stroke:rgb(100%,0%,0%);stroke-opacity:1;stroke-miterlimit:10;" d="M 254.464844 113.304688 L 244.179688 110.890625 "/>
<path style="fill:none;stroke-width:1.2;stroke-linecap:butt;stroke-linejoin:miter;stroke:rgb(100%,0%,0%);stroke-opacity:1;stroke-miterlimit:10;" d="M 244.179688 110.890625 L 236.945312 118.59375 "/>
<path style="fill:none;stroke-width:1.2;stroke-linecap:butt;stroke-linejoin:miter;stroke:rgb(0%,0%,0%);stroke-opacity:1;stroke-miterlimit:10;" d="M 236.945312 118.59375 L 229.710938 126.292969 "/>
<path style=" stroke:none;fill-rule:nonzero;fill:rgb(100%,100%,100%);fill-opacity:1;" d="M 240.179688 105.390625 L 248.179688 105.390625 L 248.179688 116.390625 L 240.179688 116.390625 Z M 240.179688 105.390625 "/>
<g style="fill:rgb(100%,0%,0%);fill-opacity:1;">
  <use xlink:href="#glyph0-1" x="240.179688" y="114.053711"/>
</g>
<path style="fill:none;stroke-width:1.2;stroke-linecap:butt;stroke-linejoin:miter;stroke:rgb(0%,0%,0%);stroke-opacity:1;stroke-miterlimit:10;" d="M 229.710938 126.292969 L 235.816406 146.523438 "/>
<path style="fill:none;stroke-width:1.2;stroke-linecap:butt;stroke-linejoin:miter;stroke:rgb(0%,0%,0%);stroke-opacity:1;stroke-miterlimit:10;" d="M 225.5625 129.753906 L 230.449219 145.9375 "/>
<path style="fill:none;stroke-width:1.2;stroke-linecap:butt;stroke-linejoin:miter;stroke:rgb(0%,0%,0%);stroke-opacity:1;stroke-miterlimit:10;" d="M 209.140625 121.464844 L 229.710938 126.292969 "/>
<path style="fill:none;stroke-width:1.2;stroke-linecap:butt;stroke-linejoin:miter;stroke:rgb(0%,0%,0%);stroke-opacity:1;stroke-miterlimit:10;" d="M 235.816406 146.523438 L 246.101562 148.9375 "/>
<path style="fill:none;stroke-width:1.2;stroke-linecap:butt;stroke-linejoin:miter;stroke:rgb(100%,0%,0%);stroke-opacity:1;stroke-miterlimit:10;" d="M 246.101562 148.9375 L 256.390625 151.347656 "/>
<path style="fill:none;stroke-width:1.2;stroke-linecap:butt;stroke-linejoin:miter;stroke:rgb(0%,0%,0%);stroke-opacity:1;stroke-miterlimit:10;" d="M 235.816406 146.523438 L 221.351562 161.925781 "/>
<path style="fill:none;stroke-width:1.2;stroke-linecap:butt;stroke-linejoin:miter;stroke:rgb(100%,0%,0%);stroke-opacity:1;stroke-miterlimit:10;" d="M 256.390625 151.347656 L 259.441406 161.464844 "/>
<path style="fill:none;stroke-width:1.2;stroke-linecap:butt;stroke-linejoin:miter;stroke:rgb(0%,0%,0%);stroke-opacity:1;stroke-miterlimit:10;" d="M 259.441406 161.464844 L 262.496094 171.578125 "/>
<path style=" stroke:none;fill-rule:nonzero;fill:rgb(100%,100%,100%);fill-opacity:1;" d="M 252.390625 145.847656 L 260.390625 145.847656 L 260.390625 156.847656 L 252.390625 156.847656 Z M 252.390625 145.847656 "/>
<g style="fill:rgb(100%,0%,0%);fill-opacity:1;">
  <use xlink:href="#glyph0-1" x="252.390625" y="154.510742"/>
</g>
<path style="fill:none;stroke-width:1.2;stroke-linecap:butt;stroke-linejoin:miter;stroke:rgb(0%,0%,0%);stroke-opacity:1;stroke-miterlimit:10;" d="M 221.351562 161.925781 L 200.78125 157.097656 "/>
<path style="fill:none;stroke-width:1.2;stroke-linecap:butt;stroke-linejoin:miter;stroke:rgb(0%,0%,0%);stroke-opacity:1;stroke-miterlimit:10;" d="M 220.429688 156.601562 L 203.972656 152.738281 "/>
<path style="fill:none;stroke-width:1.2;stroke-linecap:butt;stroke-linejoin:miter;stroke:rgb(0%,0%,0%);stroke-opacity:1;stroke-miterlimit:10;" d="M 200.78125 157.097656 L 194.675781 136.867188 "/>
<path style="fill:none;stroke-width:1.2;stroke-linecap:butt;stroke-linejoin:miter;stroke:rgb(0%,0%,0%);stroke-opacity:1;stroke-miterlimit:10;" d="M 183.429688 169.152344 L 200.78125 157.097656 "/>
<path style="fill:none;stroke-width:1.2;stroke-linecap:butt;stroke-linejoin:miter;stroke:rgb(0%,0%,0%);stroke-opacity:1;stroke-miterlimit:10;" d="M 194.675781 136.867188 L 173.550781 136.421875 "/>
<path style="fill:none;stroke-width:1.2;stroke-linecap:butt;stroke-linejoin:miter;stroke:rgb(0%,0%,0%);stroke-opacity:1;stroke-miterlimit:10;" d="M 194.675781 136.867188 L 209.140625 121.464844 "/>
<path style="fill:none;stroke-width:1.2;stroke-linecap:butt;stroke-linejoin:miter;stroke:rgb(0%,0%,0%);stroke-opacity:1;stroke-miterlimit:10;" d="M 199.746094 138.730469 L 211.320312 126.410156 "/>
<path style="fill:none;stroke-width:1.2;stroke-linecap:butt;stroke-linejoin:miter;stroke:rgb(0%,0%,0%);stroke-opacity:1;stroke-miterlimit:10;" d="M 173.550781 136.421875 L 166.597656 156.378906 "/>
<path style="fill:none;stroke-width:1.2;stroke-linecap:butt;stroke-linejoin:miter;stroke:rgb(0%,0%,0%);stroke-opacity:1;stroke-miterlimit:10;" d="M 166.597656 156.378906 L 183.429688 169.152344 "/>
<path style="fill:none;stroke-width:1.2;stroke-linecap:butt;stroke-linejoin:miter;stroke:rgb(0%,0%,0%);stroke-opacity:1;stroke-miterlimit:10;" d="M 149.246094 168.433594 L 166.597656 156.378906 "/>
<path style="fill:none;stroke-width:1.2;stroke-linecap:butt;stroke-linejoin:miter;stroke:rgb(0%,0%,0%);stroke-opacity:1;stroke-miterlimit:10;" d="M 153.820312 171.3125 L 167.699219 161.664062 "/>
<path style="fill:none;stroke-width:1.2;stroke-linecap:butt;stroke-linejoin:miter;stroke:rgb(0%,0%,0%);stroke-opacity:1;stroke-miterlimit:10;" d="M 183.429688 169.152344 L 179.953125 179.132812 "/>
<path style="fill:none;stroke-width:1.2;stroke-linecap:butt;stroke-linejoin:miter;stroke:rgb(0%,0%,100%);stroke-opacity:1;stroke-miterlimit:10;" d="M 179.953125 179.132812 L 176.476562 189.109375 "/>
<path style="fill:none;stroke-width:1.2;stroke-linecap:butt;stroke-linejoin:miter;stroke:rgb(0%,0%,0%);stroke-opacity:1;stroke-miterlimit:10;" d="M 178.039062 169.515625 L 175.257812 177.496094 "/>
<path style="fill:none;stroke-width:1.2;stroke-linecap:butt;stroke-linejoin:miter;stroke:rgb(0%,0%,100%);stroke-opacity:1;stroke-miterlimit:10;" d="M 175.257812 177.496094 L 172.476562 185.476562 "/>
<path style="fill:none;stroke-width:1.2;stroke-linecap:butt;stroke-linejoin:miter;stroke:rgb(0%,0%,100%);stroke-opacity:1;stroke-miterlimit:10;" d="M 176.476562 189.109375 L 155.351562 188.664062 "/>
<path style=" stroke:none;fill-rule:nonzero;fill:rgb(100%,100%,100%);fill-opacity:1;" d="M 173.476562 183.609375 L 180.476562 183.609375 L 180.476562 194.609375 L 173.476562 194.609375 Z M 173.476562 183.609375 "/>
<g style="fill:rgb(0%,0%,100%);fill-opacity:1;">
  <use xlink:href="#glyph0-2" x="173.476562" y="192.272461"/>
</g>
<path style="fill:none;stroke-width:1.2;stroke-linecap:butt;stroke-linejoin:miter;stroke:rgb(0%,0%,100%);stroke-opacity:1;stroke-miterlimit:10;" d="M 155.351562 188.664062 L 152.300781 178.550781 "/>
<path style="fill:none;stroke-width:1.2;stroke-linecap:butt;stroke-linejoin:miter;stroke:rgb(0%,0%,0%);stroke-opacity:1;stroke-miterlimit:10;" d="M 152.300781 178.550781 L 149.246094 168.433594 "/>
<path style=" stroke:none;fill-rule:nonzero;fill:rgb(100%,100%,100%);fill-opacity:1;" d="M 148.351562 183.164062 L 162.351562 183.164062 L 162.351562 194.164062 L 148.351562 194.164062 Z M 148.351562 183.164062 "/>
<g style="fill:rgb(0%,0%,100%);fill-opacity:1;">
  <use xlink:href="#glyph0-2" x="148.351562" y="191.827148"/>
  <use xlink:href="#glyph0-3" x="155.329102" y="191.827148"/>
</g>
<path style="fill:none;stroke-width:1.2;stroke-linecap:butt;stroke-linejoin:miter;stroke:rgb(0%,0%,0%);stroke-opacity:1;stroke-miterlimit:10;" d="M 149.246094 168.433594 L 129.292969 161.484375 "/>
<path style="fill:none;stroke-width:1.2;stroke-linecap:butt;stroke-linejoin:miter;stroke:rgb(0%,0%,0%);stroke-opacity:1;stroke-miterlimit:10;" d="M 129.292969 161.484375 L 125.335938 140.726562 "/>
<path style="fill:none;stroke-width:1.2;stroke-linecap:butt;stroke-linejoin:miter;stroke:rgb(0%,0%,0%);stroke-opacity:1;stroke-miterlimit:10;" d="M 124.011719 160.339844 L 120.847656 143.734375 "/>
<path style="fill:none;stroke-width:1.2;stroke-linecap:butt;stroke-linejoin:miter;stroke:rgb(0%,0%,0%);stroke-opacity:1;stroke-miterlimit:10;" d="M 113.296875 175.289062 L 129.292969 161.484375 "/>
<path style="fill:none;stroke-width:1.2;stroke-linecap:butt;stroke-linejoin:miter;stroke:rgb(0%,0%,0%);stroke-opacity:1;stroke-miterlimit:10;" d="M 125.335938 140.726562 L 105.382812 133.777344 "/>
<path style="fill:none;stroke-width:1.2;stroke-linecap:butt;stroke-linejoin:miter;stroke:rgb(0%,0%,0%);stroke-opacity:1;stroke-miterlimit:10;" d="M 105.382812 133.777344 L 89.386719 147.582031 "/>
<path style="fill:none;stroke-width:1.2;stroke-linecap:butt;stroke-linejoin:miter;stroke:rgb(0%,0%,0%);stroke-opacity:1;stroke-miterlimit:10;" d="M 107.03125 138.921875 L 94.234375 149.964844 "/>
<path style="fill:none;stroke-width:1.2;stroke-linecap:butt;stroke-linejoin:miter;stroke:rgb(0%,0%,0%);stroke-opacity:1;stroke-miterlimit:10;" d="M 89.386719 147.582031 L 69.429688 140.628906 "/>
<path style="fill:none;stroke-width:1.2;stroke-linecap:butt;stroke-linejoin:miter;stroke:rgb(0%,0%,0%);stroke-opacity:1;stroke-miterlimit:10;" d="M 89.386719 147.582031 L 93.34375 168.335938 "/>
<path style="fill:none;stroke-width:1.2;stroke-linecap:butt;stroke-linejoin:miter;stroke:rgb(0%,0%,0%);stroke-opacity:1;stroke-miterlimit:10;" d="M 69.429688 140.628906 L 60.753906 146.660156 "/>
<path style="fill:none;stroke-width:1.2;stroke-linecap:butt;stroke-linejoin:miter;stroke:rgb(0%,0%,100%);stroke-opacity:1;stroke-miterlimit:10;" d="M 60.753906 146.660156 L 52.078125 152.6875 "/>
<path style="fill:none;stroke-width:1.2;stroke-linecap:butt;stroke-linejoin:miter;stroke:rgb(0%,0%,0%);stroke-opacity:1;stroke-miterlimit:10;" d="M 64.859375 137.753906 L 57.917969 142.578125 "/>
<path style="fill:none;stroke-width:1.2;stroke-linecap:butt;stroke-linejoin:miter;stroke:rgb(0%,0%,100%);stroke-opacity:1;stroke-miterlimit:10;" d="M 57.917969 142.578125 L 50.976562 147.398438 "/>
<path style="fill:none;stroke-width:1.2;stroke-linecap:butt;stroke-linejoin:miter;stroke:rgb(0%,0%,100%);stroke-opacity:1;stroke-miterlimit:10;" d="M 63.328125 120.402344 L 66.378906 130.515625 "/>
<path style="fill:none;stroke-width:1.2;stroke-linecap:butt;stroke-linejoin:miter;stroke:rgb(0%,0%,0%);stroke-opacity:1;stroke-miterlimit:10;" d="M 66.378906 130.515625 L 69.429688 140.628906 "/>
<path style="fill:none;stroke-width:1.2;stroke-linecap:butt;stroke-linejoin:miter;stroke:rgb(0%,0%,100%);stroke-opacity:1;stroke-miterlimit:10;" d="M 52.078125 152.6875 L 35.25 139.910156 "/>
<path style=" stroke:none;fill-rule:nonzero;fill:rgb(100%,100%,100%);fill-opacity:1;" d="M 49.078125 147.1875 L 56.078125 147.1875 L 56.078125 158.1875 L 49.078125 158.1875 Z M 49.078125 147.1875 "/>
<g style="fill:rgb(0%,0%,100%);fill-opacity:1;">
  <use xlink:href="#glyph0-2" x="49.078125" y="155.850586"/>
</g>
<path style="fill:none;stroke-width:1.2;stroke-linecap:butt;stroke-linejoin:miter;stroke:rgb(0%,0%,100%);stroke-opacity:1;stroke-miterlimit:10;" d="M 35.25 139.910156 L 42.199219 119.957031 "/>
<path style=" stroke:none;fill-rule:nonzero;fill:rgb(100%,100%,100%);fill-opacity:1;" d="M 28.25 134.410156 L 42.25 134.410156 L 42.25 145.410156 L 28.25 145.410156 Z M 28.25 134.410156 "/>
<g style="fill:rgb(0%,0%,100%);fill-opacity:1;">
  <use xlink:href="#glyph0-2" x="28.25" y="143.073242"/>
  <use xlink:href="#glyph0-3" x="35.227539" y="143.073242"/>
</g>
<path style="fill:none;stroke-width:1.2;stroke-linecap:butt;stroke-linejoin:miter;stroke:rgb(0%,0%,100%);stroke-opacity:1;stroke-miterlimit:10;" d="M 42.199219 119.957031 L 63.328125 120.402344 "/>
<path style="fill:none;stroke-width:1.2;stroke-linecap:butt;stroke-linejoin:miter;stroke:rgb(0%,0%,100%);stroke-opacity:1;stroke-miterlimit:10;" d="M 44.207031 124.972656 L 61.109375 125.328125 "/>
<path style=" stroke:none;fill-rule:nonzero;fill:rgb(100%,100%,100%);fill-opacity:1;" d="M 39.199219 114.457031 L 46.199219 114.457031 L 46.199219 125.457031 L 39.199219 125.457031 Z M 39.199219 114.457031 "/>
<g style="fill:rgb(0%,0%,100%);fill-opacity:1;">
  <use xlink:href="#glyph0-2" x="39.199219" y="123.120117"/>
</g>
<path style=" stroke:none;fill-rule:nonzero;fill:rgb(100%,100%,100%);fill-opacity:1;" d="M 60.328125 114.902344 L 67.328125 114.902344 L 67.328125 125.902344 L 60.328125 125.902344 Z M 60.328125 114.902344 "/>
<g style="fill:rgb(0%,0%,100%);fill-opacity:1;">
  <use xlink:href="#glyph0-2" x="60.328125" y="123.56543"/>
</g>
<path style="fill:none;stroke-width:1.2;stroke-linecap:butt;stroke-linejoin:miter;stroke:rgb(0%,0%,0%);stroke-opacity:1;stroke-miterlimit:10;" d="M 93.34375 168.335938 L 113.296875 175.289062 "/>
<path style="fill:none;stroke-width:1.2;stroke-linecap:butt;stroke-linejoin:miter;stroke:rgb(0%,0%,0%);stroke-opacity:1;stroke-miterlimit:10;" d="M 96.972656 164.335938 L 112.9375 169.898438 "/>
</g>
</svg>

<svg xmlns="http://www.w3.org/2000/svg" xmlns:xlink="http://www.w3.org/1999/xlink" width="300pt" height="300pt" viewBox="0 0 300 300"><defs><symbol overflow="visible"><path d="M.453 1.594v-7.938h4.5v7.938zm.5-.5h3.5v-6.938h-3.5zm0 0"/></symbol><symbol overflow="visible" id="a"><path d="M3.547-5.953c-.65 0-1.164.242-1.547.72-.375.48-.563 1.13-.563 1.952 0 .835.188 1.49.563 1.967.383.48.898.72 1.547.72.644 0 1.156-.24 1.53-.72.376-.476.564-1.132.564-1.968 0-.822-.187-1.474-.562-1.954-.375-.477-.887-.72-1.53-.72zm0-.734c.914 0 1.648.312 2.203.937.55.617.828 1.438.828 2.47 0 1.042-.277 1.87-.828 2.483-.555.617-1.29.922-2.203.922-.93 0-1.668-.305-2.22-.922C.774-1.41.5-2.237.5-3.28c0-1.033.273-1.853.828-2.47.55-.625 1.29-.938 2.22-.938zm0 0"/></symbol><symbol overflow="visible" id="b"><path d="M.89-6.563H2.08l2.906 5.485v-5.484h.86V0H4.656L1.75-5.484V0H.89zm0 0"/></symbol><symbol overflow="visible" id="c"><path d="M.89-6.563h.876v2.688H5v-2.688h.89V0H5v-3.125H1.766V0H.89zm0 0"/></symbol></defs><g><path fill="#fff" d="M0 0h300v300H0z"/><path d="M264.75 115.72l-10.285-2.415" stroke-width="1.2" stroke="#000" stroke-miterlimit="10" fill="none"/><path d="M254.465 113.305l-10.285-2.414M244.18 110.89l-7.235 7.704" stroke-width="1.2" stroke="#f00" stroke-miterlimit="10" fill="none"/><path d="M236.945 118.594l-7.234 7.7" stroke-width="1.2" stroke="#000" stroke-miterlimit="10" fill="none"/><path d="M240.18 105.39h8v11h-8zm0 0" fill="#fff"/><use xlink:href="#a" x="240.18" y="114.054" fill="#f00"/><path d="M229.71 126.293l6.106 20.23M225.563 129.754l4.886 16.184M209.14 121.465l20.57 4.828M235.816 146.523l10.286 2.415" stroke-width="1.2" stroke="#000" stroke-miterlimit="10" fill="none"/><path d="M246.102 148.938l10.29 2.41" stroke-width="1.2" stroke="#f00" stroke-miterlimit="10" fill="none"/><path d="M235.816 146.523l-14.464 15.403" stroke-width="1.2" stroke="#000" stroke-miterlimit="10" fill="none"/><path d="M256.39 151.348l3.05 10.117" stroke-width="1.2" stroke="#f00" stroke-miterlimit="10" fill="none"/><path d="M259.44 161.465l3.056 10.113" stroke-width="1.2" stroke="#000" stroke-miterlimit="10" fill="none"/><path d="M252.39 145.848h8v11h-8zm0 0" fill="#fff"/><use xlink:href="#a" x="252.391" y="154.511" fill="#f00"/><path d="M221.352 161.926l-20.57-4.828M220.43 156.602l-16.457-3.864M200.78 157.098l-6.104-20.23M183.43 169.152l17.35-12.054M194.676 136.867l-21.125-.445M194.676 136.867l14.465-15.402M199.746 138.73l11.574-12.32M173.55 136.422L166.6 156.38M166.598 156.38l16.832 12.772M149.246 168.434l17.352-12.055M153.82 171.313l13.88-9.65M183.43 169.152l-3.477 9.98" stroke-width="1.2" stroke="#000" stroke-miterlimit="10" fill="none"/><path d="M179.953 179.133l-3.476 9.976" stroke-width="1.2" stroke="#00f" stroke-miterlimit="10" fill="none"/><path d="M178.04 169.516l-2.782 7.98" stroke-width="1.2" stroke="#000" stroke-miterlimit="10" fill="none"/><path d="M175.258 177.496l-2.78 7.98M176.477 189.11l-21.125-.446" stroke-width="1.2" stroke="#00f" stroke-miterlimit="10" fill="none"/><path d="M173.477 183.61h7v11h-7zm0 0" fill="#fff"/><use xlink:href="#b" x="173.477" y="192.272" fill="#00f"/><path d="M155.352 188.664l-3.05-10.113" stroke-width="1.2" stroke="#00f" stroke-miterlimit="10" fill="none"/><path d="M152.3 178.55l-3.054-10.116" stroke-width="1.2" stroke="#000" stroke-miterlimit="10" fill="none"/><path d="M148.352 183.164h14v11h-14zm0 0" fill="#fff"/><g fill="#00f"><use xlink:href="#b" x="148.352" y="191.827"/><use xlink:href="#c" x="155.329" y="191.827"/></g><path d="M149.246 168.434l-19.953-6.95M129.293 161.484l-3.957-20.757M124.012 160.34l-3.164-16.606M113.297 175.29l15.996-13.806M125.336 140.727l-19.953-6.95M105.383 133.777l-15.996 13.805M107.03 138.922l-12.796 11.043M89.387 147.582L69.43 140.63M89.387 147.582l3.957 20.754M69.43 140.63l-8.676 6.03" stroke-width="1.2" stroke="#000" stroke-miterlimit="10" fill="none"/><path d="M60.754 146.66l-8.676 6.028" stroke-width="1.2" stroke="#00f" stroke-miterlimit="10" fill="none"/><path d="M64.86 137.754l-6.942 4.824" stroke-width="1.2" stroke="#000" stroke-miterlimit="10" fill="none"/><path d="M57.918 142.578l-6.94 4.82M63.328 120.402l3.05 10.114" stroke-width="1.2" stroke="#00f" stroke-miterlimit="10" fill="none"/><path d="M66.38 130.516l3.05 10.113" stroke-width="1.2" stroke="#000" stroke-miterlimit="10" fill="none"/><path d="M52.078 152.688L35.25 139.91" stroke-width="1.2" stroke="#00f" stroke-miterlimit="10" fill="none"/><path d="M49.078 147.188h7v11h-7zm0 0" fill="#fff"/><use xlink:href="#b" x="49.078" y="155.851" fill="#00f"/><path d="M35.25 139.91l6.95-19.953" stroke-width="1.2" stroke="#00f" stroke-miterlimit="10" fill="none"/><path d="M28.25 134.41h14v11h-14zm0 0" fill="#fff"/><g fill="#00f"><use xlink:href="#b" x="28.25" y="143.073"/><use xlink:href="#c" x="35.228" y="143.073"/></g><path d="M42.2 119.957l21.128.445M44.207 124.973l16.902.355" stroke-width="1.2" stroke="#00f" stroke-miterlimit="10" fill="none"/><path d="M39.2 114.457h7v11h-7zm0 0" fill="#fff"/><use xlink:href="#b" x="39.199" y="123.12" fill="#00f"/><path d="M60.328 114.902h7v11h-7zm0 0" fill="#fff"/><use xlink:href="#b" x="60.328" y="123.565" fill="#00f"/><path d="M93.344 168.336l19.953 6.953M96.973 164.336l15.965 5.562" stroke-width="1.2" stroke="#000" stroke-miterlimit="10" fill="none"/></g></svg>
